X:1
T:Title
%%score { ( 1 3 ) | ( 2 4 ) }
L:1/8
M:4/4
K:G
V:1 treble nm="Grand Piano"
V:3 treble 
V:2 bass 
V:4 bass 
V:1
 z4 z2[Q:1/4=100] D2 | G2 D2 EFGA | B3 A G2 B2 | d2 B2 d2 e2 |[M:3/4] d6 |[M:1/4] D2 | %6
[M:4/4] z2 .c2 z4 | d2 B2 G2 B2 | z2 .G2 z4 |[M:3/4] D6 |[M:1/4] D2 | %11
[M:4/4] [DGB]2 [DGB]2 [DGB]2 [DGB]2 | [D=FB]4 [D^Fc]2 D2 | [DFc]2 [DFc]2 [DFc]2 [DFc]2 | %14
[M:3/4] [E^c]4 [Dd]2 |[M:1/4] [G,G]2 |[M:4/4] [EGe]2 [EGc]2 [DGd]2 [DGB]2 | %17
 [CEc]2 [DAd]2 [DGB]2 [DG]2 | [EAc]2 [DGB]2 [CFA]3 [DFB] |[M:3/4] [B,DG]6 |] %20
V:2
 z4 z2 D,2 | G,2 D,2 E,F,G,A, | B,3 A, G,2[K:treble] [G,DG]2 | %3
 [G,B,G]2 [G,DG]2 [^G,B,=F]2 [G,B,F]2 |[M:3/4] [A,CF]6 |[M:1/4][K:bass] D,2 | %6
[M:4/4] [D,A,]2 .[D,A,]2 [D,C]2 [D,C]2 | [G,G]2- [G,DG]2[K:bass] [G,B,D]2 [E,G,D]2 | %8
 [A,,E,]2 .[A,,E,]2 [A,,G,]2 [A,,G,]2 |[M:3/4] [D,F,]6 |[M:1/4] D,2 | %11
[M:4/4] [G,,G,]2 [D,,D,]2 [G,,G,]2 [D,,D,]2 | [^G,,^G,]2 [D,,D,]2 [A,,A,]2 [D,,D,]2 | %13
 [A,,A,]2 [D,,D,]2 [A,,A,]2 [D,,D,]2 |[M:3/4] [_B,,_B,]2 [D,,D,]2 [=B,,=B,]2 |[M:1/4] z2 | %16
[M:4/4] [C,C]2 [A,,A,]2 [B,,B,]2 [G,,G,]2 | [A,,A,]2 [F,,F,]2 [G,,G,]2 [B,,,B,,]2 | %18
 [A,,,A,,]2 [B,,,B,,][C,,C,] [D,,D,]3 [D,,D,] |[M:3/4] [G,,G,]6 |] %20
V:3
 x8 | x8 | x8 | x8 |[M:3/4] x6 |[M:1/4] x2 |[M:4/4] [Fd]2 F-[B,FB] [FA]2 [Fe]2 | x8 | %8
 [^CA]2 C-[F,CF] [CE]2 [CA]2 |[M:3/4] x6 |[M:1/4] x2 |[M:4/4] x8 | x8 | x8 |[M:3/4] G6 | %15
[M:1/4] x2 |[M:4/4] x8 | x8 | x8 |[M:3/4] x6 |] %20
V:4
 x8 | x8 | x6[K:treble] x2 | x8 |[M:3/4] x6 |[M:1/4][K:bass] x2 |[M:4/4] x8 | B,2 z2[K:bass] z4 | %8
 x8 |[M:3/4] x6 |[M:1/4] x2 |[M:4/4] x8 | x8 | x8 |[M:3/4] x6 |[M:1/4] x2 |[M:4/4] x8 | x8 | x8 | %19
[M:3/4] x6 |] %20

